X:941
T: Édesanyám, pémz van az én zsebembe,
M:1/4
L:1/8
K:Bb
GGcd eced | c G3 G2 z2 |
ddga bgba | g d3 d2 z2 |
ddga bgba | g d3 c2 z2 |
GGcd eced | c G3 G2 z2 |

